flaticon/religion/holy-scriptures.svg

<svg xmlns="http://www.w3.org/2000/svg" width="32" height="32" viewBox="0 0 24 24">
    <path d="M 24 4.398438 L 24 2 L 22.742188 2 C 22.777344 1.871094 22.800781 1.738281 22.800781 1.601562 C 22.800781 0.71875 22.082031 0 21.199219 0 C 20.316406 0 19.601562 0.71875 19.601562 1.601562 C 19.601562 1.738281 19.625 1.871094 19.660156 2 L 18 2 L 18 4.398438 L 18.800781 4.398438 L 18.800781 4.800781 L 4 4.800781 L 4 4.398438 L 4.800781 4.398438 L 4.800781 2 L 3.941406 2 C 3.976562 1.871094 4 1.738281 4 1.601562 C 4 0.71875 3.28125 0 2.398438 0 C 1.519531 0 0.800781 0.71875 0.800781 1.601562 C 0.800781 1.738281 0.824219 1.871094 0.859375 2 L 0 2 L 0 4.398438 L 0.800781 4.398438 L 0.800781 19.601562 L 0 19.601562 L 0 22 L 0.859375 22 C 0.824219 22.128906 0.800781 22.261719 0.800781 22.398438 C 0.800781 23.28125 1.519531 24 2.398438 24 C 3.28125 24 4 23.28125 4 22.398438 C 4 22.261719 3.976562 22.128906 3.941406 22 L 4.800781 22 L 4.800781 19.601562 L 4 19.601562 L 4 19.199219 L 18.800781 19.199219 L 18.800781 19.601562 L 18 19.601562 L 18 22 L 19.660156 22 C 19.625 22.128906 19.601562 22.261719 19.601562 22.398438 C 19.601562 23.28125 20.316406 24 21.199219 24 C 22.082031 24 22.800781 23.28125 22.800781 22.398438 C 22.800781 22.261719 22.777344 22.128906 22.742188 22 L 24 22 L 24 19.601562 L 23.199219 19.601562 L 23.199219 4.398438 Z M 21.199219 0.800781 C 21.640625 0.800781 22 1.160156 22 1.601562 C 22 1.765625 21.949219 1.898438 21.890625 2 L 20.511719 2 C 20.449219 1.898438 20.398438 1.765625 20.398438 1.601562 C 20.398438 1.160156 20.757812 0.800781 21.199219 0.800781 Z M 2.398438 0.800781 C 2.839844 0.800781 3.199219 1.160156 3.199219 1.601562 C 3.199219 1.765625 3.152344 1.898438 3.089844 2 L 1.710938 2 C 1.648438 1.898438 1.601562 1.765625 1.601562 1.601562 C 1.601562 1.160156 1.957031 0.800781 2.398438 0.800781 Z M 2.398438 23.199219 C 1.957031 23.199219 1.601562 22.839844 1.601562 22.398438 C 1.601562 22.234375 1.648438 22.101562 1.710938 22 L 3.089844 22 C 3.152344 22.101562 3.199219 22.234375 3.199219 22.398438 C 3.199219 22.839844 2.839844 23.199219 2.398438 23.199219 Z M 4 21.199219 L 0.800781 21.199219 L 0.800781 20.398438 L 4 20.398438 Z M 1.601562 19.601562 L 1.601562 4.398438 L 3.199219 4.398438 L 3.199219 19.601562 Z M 0.800781 3.601562 L 0.800781 2.800781 L 4 2.800781 L 4 3.601562 Z M 4 18.398438 L 4 5.601562 L 18.800781 5.601562 L 18.800781 18.398438 Z M 21.199219 23.199219 C 20.757812 23.199219 20.398438 22.839844 20.398438 22.398438 C 20.398438 22.234375 20.449219 22.101562 20.511719 22 L 21.890625 22 C 21.949219 22.101562 22 22.234375 22 22.398438 C 22 22.839844 21.640625 23.199219 21.199219 23.199219 Z M 23.199219 21.199219 L 18.800781 21.199219 L 18.800781 20.398438 L 23.199219 20.398438 Z M 19.601562 19.601562 L 19.601562 4.398438 L 22.398438 4.398438 L 22.398438 19.601562 Z M 18.800781 3.601562 L 18.800781 2.800781 L 23.199219 2.800781 L 23.199219 3.601562 Z M 18.800781 3.601562"/>
    <path d="M5.199219 8.398438L6.398438 8.398438C6.621094 8.398438 6.800781 8.222656 6.800781 8 6.800781 7.777344 6.621094 7.601562 6.398438 7.601562L5.199219 7.601562C4.980469 7.601562 4.800781 7.777344 4.800781 8 4.800781 8.222656 4.980469 8.398438 5.199219 8.398438zM10 7.601562L8.800781 7.601562C8.578125 7.601562 8.398438 7.777344 8.398438 8 8.398438 8.222656 8.578125 8.398438 8.800781 8.398438L10 8.398438C10.222656 8.398438 10.398438 8.222656 10.398438 8 10.398438 7.777344 10.222656 7.601562 10 7.601562zM7.601562 8.398438C7.703125 8.398438 7.808594 8.355469 7.882812 8.285156 7.957031 8.207031 8 8.109375 8 8 8 7.890625 7.957031 7.792969 7.882812 7.714844 7.730469 7.566406 7.464844 7.566406 7.316406 7.714844 7.242188 7.792969 7.199219 7.894531 7.199219 8 7.199219 8.105469 7.242188 8.207031 7.316406 8.285156 7.390625 8.355469 7.496094 8.398438 7.601562 8.398438zM5.199219 12.398438C5.304688 12.398438 5.40625 12.355469 5.484375 12.285156 5.554688 12.207031 5.601562 12.109375 5.601562 12 5.601562 11.894531 5.554688 11.792969 5.484375 11.714844 5.332031 11.566406 5.0625 11.566406 4.914062 11.714844 4.84375 11.792969 4.800781 11.890625 4.800781 12 4.800781 12.109375 4.84375 12.207031 4.914062 12.285156 4.992188 12.355469 5.097656 12.398438 5.199219 12.398438zM10 9.601562L6.398438 9.601562C6.179688 9.601562 6 9.777344 6 10 6 10.222656 6.179688 10.398438 6.398438 10.398438L10 10.398438C10.222656 10.398438 10.398438 10.222656 10.398438 10 10.398438 9.777344 10.222656 9.601562 10 9.601562zM8.800781 12.398438C9.019531 12.398438 9.199219 12.222656 9.199219 12 9.199219 11.777344 9.019531 11.601562 8.800781 11.601562L6.398438 11.601562C6.179688 11.601562 6 11.777344 6 12 6 12.222656 6.179688 12.398438 6.398438 12.398438zM5.199219 10.398438C5.304688 10.398438 5.40625 10.355469 5.484375 10.285156 5.554688 10.207031 5.601562 10.105469 5.601562 10 5.601562 9.894531 5.554688 9.792969 5.484375 9.714844 5.332031 9.566406 5.0625 9.570312 4.914062 9.714844 4.84375 9.792969 4.800781 9.890625 4.800781 10 4.800781 10.105469 4.84375 10.207031 4.914062 10.285156 4.992188 10.355469 5.097656 10.398438 5.199219 10.398438zM9.714844 11.714844C9.644531 11.792969 9.601562 11.894531 9.601562 12 9.601562 12.105469 9.644531 12.207031 9.714844 12.285156 9.792969 12.355469 9.894531 12.398438 10 12.398438 10.105469 12.398438 10.207031 12.355469 10.285156 12.285156 10.355469 12.207031 10.398438 12.105469 10.398438 12 10.398438 11.894531 10.355469 11.792969 10.285156 11.714844 10.136719 11.566406 9.867188 11.566406 9.714844 11.714844zM10 13.601562L5.199219 13.601562C4.980469 13.601562 4.800781 13.777344 4.800781 14 4.800781 14.222656 4.980469 14.398438 5.199219 14.398438L10 14.398438C10.222656 14.398438 10.398438 14.222656 10.398438 14 10.398438 13.777344 10.222656 13.601562 10 13.601562zM6.398438 15.601562L5.199219 15.601562C4.980469 15.601562 4.800781 15.777344 4.800781 16 4.800781 16.222656 4.980469 16.398438 5.199219 16.398438L6.398438 16.398438C6.621094 16.398438 6.800781 16.222656 6.800781 16 6.800781 15.777344 6.621094 15.601562 6.398438 15.601562zM10 15.601562L7.601562 15.601562C7.378906 15.601562 7.199219 15.777344 7.199219 16 7.199219 16.222656 7.378906 16.398438 7.601562 16.398438L10 16.398438C10.222656 16.398438 10.398438 16.222656 10.398438 16 10.398438 15.777344 10.222656 15.601562 10 15.601562zM12.800781 8.398438L14 8.398438C14.222656 8.398438 14.398438 8.222656 14.398438 8 14.398438 7.777344 14.222656 7.601562 14 7.601562L12.800781 7.601562C12.578125 7.601562 12.398438 7.777344 12.398438 8 12.398438 8.222656 12.578125 8.398438 12.800781 8.398438zM17.601562 7.601562L16.398438 7.601562C16.179688 7.601562 16 7.777344 16 8 16 8.222656 16.179688 8.398438 16.398438 8.398438L17.601562 8.398438C17.820312 8.398438 18 8.222656 18 8 18 7.777344 17.820312 7.601562 17.601562 7.601562zM15.199219 8.398438C15.304688 8.398438 15.40625 8.355469 15.484375 8.285156 15.554688 8.207031 15.601562 8.105469 15.601562 8 15.601562 7.894531 15.554688 7.792969 15.484375 7.714844 15.335938 7.566406 15.0625 7.566406 14.914062 7.714844 14.84375 7.792969 14.800781 7.894531 14.800781 8 14.800781 8.105469 14.84375 8.207031 14.914062 8.285156 14.992188 8.355469 15.097656 8.398438 15.199219 8.398438zM12.800781 12.398438C12.902344 12.398438 13.007812 12.355469 13.085938 12.285156 13.15625 12.207031 13.199219 12.105469 13.199219 12 13.199219 11.894531 13.15625 11.792969 13.085938 11.714844 12.933594 11.566406 12.664062 11.566406 12.515625 11.714844 12.445312 11.792969 12.398438 11.894531 12.398438 12 12.398438 12.105469 12.445312 12.207031 12.515625 12.285156 12.59375 12.355469 12.695312 12.398438 12.800781 12.398438zM17.601562 9.601562L14 9.601562C13.777344 9.601562 13.601562 9.777344 13.601562 10 13.601562 10.222656 13.777344 10.398438 14 10.398438L17.601562 10.398438C17.820312 10.398438 18 10.222656 18 10 18 9.777344 17.820312 9.601562 17.601562 9.601562zM16.398438 12.398438C16.621094 12.398438 16.800781 12.222656 16.800781 12 16.800781 11.777344 16.621094 11.601562 16.398438 11.601562L14 11.601562C13.777344 11.601562 13.601562 11.777344 13.601562 12 13.601562 12.222656 13.777344 12.398438 14 12.398438zM12.800781 10.398438C12.902344 10.398438 13.007812 10.355469 13.085938 10.285156 13.15625 10.207031 13.199219 10.105469 13.199219 10 13.199219 9.894531 13.15625 9.792969 13.085938 9.714844 12.9375 9.566406 12.664062 9.566406 12.515625 9.714844 12.445312 9.792969 12.398438 9.894531 12.398438 10 12.398438 10.105469 12.445312 10.207031 12.515625 10.285156 12.59375 10.355469 12.695312 10.398438 12.800781 10.398438zM17.316406 11.714844C17.242188 11.792969 17.199219 11.894531 17.199219 12 17.199219 12.105469 17.242188 12.207031 17.316406 12.285156 17.390625 12.355469 17.496094 12.398438 17.601562 12.398438 17.703125 12.398438 17.808594 12.355469 17.882812 12.285156 17.957031 12.207031 18 12.105469 18 12 18 11.894531 17.957031 11.792969 17.882812 11.714844 17.734375 11.566406 17.464844 11.566406 17.316406 11.714844zM17.601562 13.601562L12.800781 13.601562C12.578125 13.601562 12.398438 13.777344 12.398438 14 12.398438 14.222656 12.578125 14.398438 12.800781 14.398438L17.601562 14.398438C17.820312 14.398438 18 14.222656 18 14 18 13.777344 17.820312 13.601562 17.601562 13.601562zM14 15.601562L12.800781 15.601562C12.578125 15.601562 12.398438 15.777344 12.398438 16 12.398438 16.222656 12.578125 16.398438 12.800781 16.398438L14 16.398438C14.222656 16.398438 14.398438 16.222656 14.398438 16 14.398438 15.777344 14.222656 15.601562 14 15.601562zM17.601562 15.601562L15.199219 15.601562C14.980469 15.601562 14.800781 15.777344 14.800781 16 14.800781 16.222656 14.980469 16.398438 15.199219 16.398438L17.601562 16.398438C17.820312 16.398438 18 16.222656 18 16 18 15.777344 17.820312 15.601562 17.601562 15.601562zM17.601562 15.601562"/>
</svg>

<svg xmlns="http://www.w3.org/2000/svg" width="32" height="32" viewBox="0 0 24 24">
    <path d="M24 4.398V2h-1.258c.035-.129.059-.262.059-.398a1.6 1.6 0 0 0-3.2 0c0 .136.024.27.06.398H18v2.398h.8v.403H4v-.403h.8V2h-.859c.036-.129.059-.262.059-.398C4 .719 3.281 0 2.398 0 1.52 0 .801.719.801 1.602c0 .136.023.27.058.398H0v2.398h.8v15.204H0V22h.86a1.512 1.512 0 0 0-.06.398C.8 23.281 1.52 24 2.399 24 3.281 24 4 23.281 4 22.398c0-.136-.023-.27-.059-.398h.86v-2.398H4v-.403h14.8v.403H18V22h1.66a1.512 1.512 0 0 0-.058.398A1.6 1.6 0 0 0 21.199 24c.883 0 1.602-.719 1.602-1.602 0-.136-.024-.27-.059-.398H24v-2.398h-.8V4.398zM21.2.801c.44 0 .8.36.8.8 0 .165-.05.297-.11.399h-1.378a.75.75 0 0 1-.114-.398c0-.442.36-.801.801-.801zM2.397.8c.442 0 .801.36.801.8A.75.75 0 0 1 3.09 2H1.712A.799.799 0 0 1 2.399.8zm0 22.398A.799.799 0 0 1 1.711 22H3.09a.75.75 0 0 1 .11.398c0 .442-.36.801-.802.801zM4 21.2H.8v-.8H4zm-2.398-1.597V4.398h1.597v15.204zm-.801-16V2.8H4v.8zM4 18.398V5.602h14.8v12.796zM21.2 23.2c-.442 0-.802-.36-.802-.8a.75.75 0 0 1 .114-.399h1.379c.058.102.109.234.109.398 0 .442-.36.801-.8.801zm2-2h-4.4v-.8h4.4zm-3.598-1.597V4.398h2.796v15.204zm-.801-16V2.8h4.398v.8zm0 0"/>
    <path d="M5.2 8.398h1.198a.398.398 0 1 0 0-.796H5.2a.398.398 0 1 0 0 .796zm0 0M10 7.602H8.8a.398.398 0 1 0 0 .796H10A.395.395 0 0 0 10.398 8 .395.395 0 0 0 10 7.602zm0 0M7.602 8.398a.42.42 0 0 0 .28-.113.409.409 0 0 0 0-.57.416.416 0 0 0-.566 0A.416.416 0 0 0 7.2 8c0 .105.043.207.117.285.075.07.18.113.286.113zm0 0M5.2 12.398a.43.43 0 0 0 .284-.113.426.426 0 0 0 .118-.285.434.434 0 0 0-.118-.285.42.42 0 0 0-.57 0 .423.423 0 0 0-.113.285c0 .11.043.207.113.285.078.07.184.113.285.113zm0 0M10 9.602H6.398a.398.398 0 1 0 0 .796H10a.395.395 0 0 0 .398-.398.395.395 0 0 0-.398-.398zm0 0M8.8 12.398a.398.398 0 1 0 0-.796H6.399a.398.398 0 1 0 0 .796zm0 0M5.2 10.398a.43.43 0 0 0 .284-.113.434.434 0 0 0 .118-.285.434.434 0 0 0-.118-.285.425.425 0 0 0-.57 0 .423.423 0 0 0-.113.285.43.43 0 0 0 .113.285c.078.07.184.113.285.113zm0 0M9.715 11.715a.43.43 0 0 0-.113.285.43.43 0 0 0 .113.285.43.43 0 0 0 .285.113.43.43 0 0 0 .285-.113.43.43 0 0 0 .113-.285.43.43 0 0 0-.113-.285.42.42 0 0 0-.57 0zm0 0M10 13.602H5.2a.398.398 0 1 0 0 .796H10a.395.395 0 0 0 .398-.398.395.395 0 0 0-.398-.398zm0 0M6.398 15.602H5.2a.398.398 0 1 0 0 .796h1.2a.398.398 0 1 0 0-.796zm0 0M10 15.602H7.602a.398.398 0 1 0 0 .796H10a.395.395 0 0 0 .398-.398.395.395 0 0 0-.398-.398zm0 0M12.8 8.398H14A.395.395 0 0 0 14.398 8 .395.395 0 0 0 14 7.602h-1.2a.398.398 0 1 0 0 .796zm0 0M17.602 7.602h-1.204a.398.398 0 1 0 0 .796h1.204a.398.398 0 1 0 0-.796zm0 0M15.2 8.398a.43.43 0 0 0 .284-.113.434.434 0 0 0 .118-.285.434.434 0 0 0-.118-.285.42.42 0 0 0-.57 0 .43.43 0 0 0-.113.285.43.43 0 0 0 .113.285c.078.07.184.113.285.113zm0 0M12.8 12.398a.438.438 0 0 0 .286-.113.43.43 0 0 0 .113-.285.43.43 0 0 0-.113-.285.42.42 0 0 0-.57 0 .434.434 0 0 0-.118.285c0 .105.047.207.118.285a.43.43 0 0 0 .285.113zm0 0M17.602 9.602H14a.395.395 0 0 0-.398.398c0 .223.175.398.398.398h3.602a.398.398 0 1 0 0-.796zm0 0M16.398 12.398a.398.398 0 1 0 0-.796H14a.395.395 0 0 0-.398.398c0 .223.175.398.398.398zm0 0M12.8 10.398a.438.438 0 0 0 .286-.113.43.43 0 0 0 .113-.285.43.43 0 0 0-.113-.285.42.42 0 0 0-.57 0 .434.434 0 0 0-.118.285c0 .105.047.207.118.285a.43.43 0 0 0 .285.113zm0 0M17.316 11.715A.416.416 0 0 0 17.2 12c0 .105.043.207.117.285.075.07.18.113.286.113a.42.42 0 0 0 .28-.113A.416.416 0 0 0 18 12a.416.416 0 0 0-.117-.285.416.416 0 0 0-.567 0zm0 0M17.602 13.602H12.8a.398.398 0 1 0 0 .796h4.8a.398.398 0 1 0 0-.796zm0 0M14 15.602h-1.2a.398.398 0 1 0 0 .796H14a.395.395 0 0 0 .398-.398.395.395 0 0 0-.398-.398zm0 0M17.602 15.602h-2.403a.398.398 0 1 0 0 .796h2.403a.398.398 0 1 0 0-.796zm0 0"/>
</svg>
